X:137
T: Die elfjaehrige Markgraefin
N: Q1053O
O: Mitteleuropa, Deutschland / Frankreich, Lothringen
N: Melodievergleich zu Q0053B, anderes Lied.
R: geistlich
M: 6/4
L: 1/4
K: F
cccd | c2ffde | f2
cffg | fedc2d | c2
ccdc | AGAFDE | F2
Acdc | AGAFDE | F2

